gtk-icons/Papirus-GTK/48x48/apps/copy-com.svg

<?xml version="1.0" encoding="UTF-8" standalone="no"?>
<!-- Created with Inkscape (http://www.inkscape.org/) -->

<svg
   xmlns:dc="http://purl.org/dc/elements/1.1/"
   xmlns:cc="http://creativecommons.org/ns#"
   xmlns:rdf="http://www.w3.org/1999/02/22-rdf-syntax-ns#"
   xmlns:svg="http://www.w3.org/2000/svg"
   xmlns="http://www.w3.org/2000/svg"
   xmlns:sodipodi="http://sodipodi.sourceforge.net/DTD/sodipodi-0.dtd"
   xmlns:inkscape="http://www.inkscape.org/namespaces/inkscape"
   id="svg2"
   version="1.1"
   inkscape:version="0.91 r"
   width="48"
   height="48"
   viewBox="0 0 48 48"
   sodipodi:docname="copy.svg">
  <metadata
     id="metadata8">
    <rdf:RDF>
      <cc:Work
         rdf:about="">
        <dc:format>image/svg+xml</dc:format>
        <dc:type
           rdf:resource="http://purl.org/dc/dcmitype/StillImage" />
        <dc:title></dc:title>
      </cc:Work>
    </rdf:RDF>
  </metadata>
  <defs
     id="defs6" />
  <sodipodi:namedview
     pagecolor="#ffffff"
     bordercolor="#666666"
     borderopacity="1"
     objecttolerance="10"
     gridtolerance="10"
     guidetolerance="10"
     inkscape:pageopacity="0"
     inkscape:pageshadow="2"
     inkscape:window-width="1535"
     inkscape:window-height="876"
     id="namedview4"
     showgrid="false"
     showguides="false"
     inkscape:zoom="1"
     inkscape:cx="29.419981"
     inkscape:cy="21.050112"
     inkscape:window-x="65"
     inkscape:window-y="24"
     inkscape:window-maximized="1"
     inkscape:current-layer="svg2" />
  <g
     id="g4138"
     transform="matrix(0.11436739,0,0,0.11436739,3.5493841,8.3970741)">
    <path
       style="fill:#1ba9cb"
       d="M 135.09634,276.32812 82.633834,110.19685 3.9400742,127.68435 69.518207,75.221843 l 30.603133,8.743752 56.83438,131.156265 104.92501,-65.57813 30.60313,4.37187 61.20626,122.41252 -183.61877,-17.4875 z M 235.64948,127.68435 318.71512,-3.4719171 274.99636,145.17185 Z"
       id="path4142"
       inkscape:connector-curvature="0"
       sodipodi:nodetypes="ccccccccccccccc" />
    <path
       style="fill:#e65902"
       d="m 161.32759,197.63436 -21.85937,-43.71876 48.09063,-26.23125 26.23125,0 34.97501,17.4875 z"
       id="path4140"
       inkscape:connector-curvature="0"
       sodipodi:nodetypes="cccccc" />
  </g>
  <g
     transform="matrix(0.11436739,0,0,0.11436739,3.5493841,8.3970741)"
     id="g4144"
     style="fill:#8b8b8b;fill-opacity:1">
    <path
       style="fill:#ffffff;fill-opacity:1;opacity:0.1"
       d="M 40 8 L 30.5 23 L 30.994141 23.21875 L 39.451172 9.8671875 L 40 8 z M 11.5 17 L 4 23 L 5.7304688 22.615234 L 11.5 18 L 15 19 L 21.5 34 L 33.5 26.5 L 37 27 L 43.474609 39.949219 L 44 40 L 37 26 L 35.080078 25.726562 L 35 26 L 34.052734 25.578125 L 33.5 25.5 L 21.5 33 L 15 18 L 11.5 17 z M 25 23 L 19.5 26 L 19.892578 26.785156 L 25 24 L 28 24 L 31.091797 25.544922 L 32 25 L 28 23 L 25 23 z "
       transform="matrix(8.7437512,0,0,8.7437512,-31.034931,-73.421926)"
       id="path4146" />
  </g>
  <g
     style="fill:#000000;fill-opacity:1"
     id="g4151"
     transform="matrix(0.11436739,0,0,0.11436739,3.5493841,8.3970741)">
    <path
       style="fill:#000000;fill-opacity:1;opacity:0.3"
       d="M 40 8 L 39.451172 8.8671875 L 35 24 L 30.994141 22.21875 L 30.5 23 L 34.052734 24.578125 L 35.080078 24.726562 L 40 8 z M 13 20 L 5.7304688 21.615234 L 4 23 L 13 21 L 19 40 L 23 38 L 44 40 L 43.474609 38.949219 L 23 37 L 19 39 L 13 20 z M 31.091797 24.544922 L 22 30 L 19.892578 25.785156 L 19.5 26 L 22 31 L 32 25 L 31.091797 24.544922 z "
       transform="matrix(8.7437512,0,0,8.7437512,-31.034931,-73.421926)"
       id="path4153" />
  </g>
  <g
     transform="matrix(0.11436739,0,0,0.11436739,3.5493841,7.3970739)"
     id="g4155"
     style="fill:#5f5f5f;fill-opacity:1" />
  <g
     style="fill:#a9a9a9;fill-opacity:1"
     id="g4160"
     transform="matrix(0.11436739,0,0,0.11436739,3.5493841,9.3970739)" />
</svg>

<?xml version="1.0" encoding="UTF-8" standalone="no"?>
<!-- Created with Inkscape (http://www.inkscape.org/) -->
<svg id="svg2" xmlns:rdf="http://www.w3.org/1999/02/22-rdf-syntax-ns#" xmlns="http://www.w3.org/2000/svg" height="48" viewBox="0 0 48 48" width="48" version="1.1" xmlns:cc="http://creativecommons.org/ns#" xmlns:dc="http://purl.org/dc/elements/1.1/">
 <metadata id="metadata8">
  <rdf:RDF>
   <cc:Work rdf:about="">
    <dc:format>image/svg+xml</dc:format>
    <dc:type rdf:resource="http://purl.org/dc/dcmitype/StillImage"/>
    <dc:title/>
   </cc:Work>
  </rdf:RDF>
 </metadata>
 <g id="g4138" transform="matrix(.11437 0 0 .11437 3.5494 8.3971)">
  <path id="path4142" fill="#1ba9cb" d="m135.1 276.33-52.466-166.13-78.694 17.48 65.578-52.458l30.603 8.7438 56.834 131.16 104.93-65.578 30.603 4.3719 61.206 122.41-183.62-17.488zm100.55-148.65 83.07-131.15-43.72 148.64z"/>
  <path id="path4140" fill="#e65902" d="m161.33 197.63-21.859-43.719 48.091-26.231h26.231l34.975 17.488z"/>
 </g>
 <g id="g4144" fill="#8b8b8b" transform="matrix(.11437 0 0 .11437 3.5494 8.3971)">
  <path id="path4146" opacity=".1" d="m40 8l-9.5 15 0.494 0.219 8.457-13.352 0.549-1.867zm-28.5 9l-7.5 6 1.7305-0.385 5.7695-4.615 3.5 1 6.5 15 12-7.5 3.5 0.5 6.475 12.949 0.525 0.051-7-14-1.92-0.273-0.08 0.273-0.947-0.422-0.553-0.078-12 7.5-6.5-15-3.5-1zm13.5 6l-5.5 3 0.393 0.785 5.107-2.785h3l3.092 1.545 0.908-0.545-4-2h-3z" transform="matrix(8.7438 0 0 8.7438 -31.035 -73.422)" fill="#fff"/>
 </g>
 <g id="g4151" transform="matrix(.11437 0 0 .11437 3.5494 8.3971)">
  <path id="path4153" opacity=".3" d="m40 8l-0.549 0.8672-4.451 15.133-4.006-1.781-0.494 0.781 3.553 1.578 1.027 0.149 4.92-16.727zm-27 12l-7.2695 1.615-1.7305 1.385 9-2 6 19 4-2 21 2-0.525-1.051-20.475-1.949-4 2-6-19zm18.092 4.545l-9.092 5.455-2.107-4.215-0.393 0.215 2.5 5 10-6-0.908-0.455z" transform="matrix(8.7438 0 0 8.7438 -31.035 -73.422)"/>
 </g>
</svg>
